assets/svg/manager-o.svg

<?xml version="1.0" encoding="UTF-8"?>
<svg width="1000px" height="1000px" viewBox="0 0 1000 1000" version="1.1" xmlns="http://www.w3.org/2000/svg" xmlns:xlink="http://www.w3.org/1999/xlink">
    <!-- Generator: sketchtool 52.4 (67378) - http://www.bohemiancoding.com/sketch -->
    <title>manager-o</title>
    <desc>Created with sketchtool.</desc>
    <g id="新版图标" stroke="none" stroke-width="1" fill="none" fill-rule="evenodd">
        <g id="manager-o" fill="#323233" fill-rule="nonzero">
            <g id="直角-我的-线">
                <path d="M166.666667,696.659706 L166.666667,888.888889 L833.333333,888.888889 L833.333333,696.659706 L654.088659,611.111111 L345.911341,611.111111 L166.666667,696.659706 Z M142.737245,646.52187 L321.98192,560.973276 C329.454961,557.406597 337.630789,555.555556 345.911341,555.555556 L654.088659,555.555556 C662.369211,555.555556 670.545039,557.406597 678.01808,560.973276 L857.262755,646.52187 C876.585364,655.744025 888.888889,675.249163 888.888889,696.659706 L888.888889,888.888889 C888.888889,919.571375 864.015819,944.444444 833.333333,944.444444 L166.666667,944.444444 C135.984181,944.444444 111.111111,919.571375 111.111111,888.888889 L111.111111,696.659706 C111.111111,675.249163 123.414636,655.744025 142.737245,646.52187 Z M500,444.444444 C592.047458,444.444444 666.666667,369.825236 666.666667,277.777778 C666.666667,185.730319 592.047458,111.111111 500,111.111111 C407.952542,111.111111 333.333333,185.730319 333.333333,277.777778 C333.333333,369.825236 407.952542,444.444444 500,444.444444 Z M500,500 C377.270056,500 277.777778,400.507722 277.777778,277.777778 C277.777778,155.047833 377.270056,55.5555556 500,55.5555556 C622.729944,55.5555556 722.222222,155.047833 722.222222,277.777778 C722.222222,400.507722 622.729944,500 500,500 Z M555.555556,722.222222 L722.222222,722.222222 L722.222222,777.777778 L555.555556,777.777778 L555.555556,722.222222 Z" id="Rectangle-17"></path>
            </g>
        </g>
    </g>
</svg>

<svg width="1000" height="1000" xmlns="http://www.w3.org/2000/svg"><path d="M166.667 696.66v192.229h666.666v-192.23L654.09 611.112H345.91L166.667 696.66zm-23.93-50.138l179.245-85.549a55.556 55.556 0 0 1 23.93-5.417h308.177c8.28 0 16.456 1.85 23.93 5.417l179.244 85.549a55.556 55.556 0 0 1 31.626 50.138v192.229c0 30.682-24.873 55.555-55.556 55.555H166.667c-30.683 0-55.556-24.873-55.556-55.555v-192.23a55.556 55.556 0 0 1 31.626-50.137zM500 444.444c92.047 0 166.667-74.619 166.667-166.666 0-92.048-74.62-166.667-166.667-166.667s-166.667 74.62-166.667 166.667S407.953 444.444 500 444.444zM500 500c-122.73 0-222.222-99.492-222.222-222.222S377.27 55.556 500 55.556s222.222 99.492 222.222 222.222S622.73 500 500 500zm55.556 222.222h166.666v55.556H555.556v-55.556z" fill="#323233" fill-rule="nonzero"/></svg>
